src/assets/icons/lock.svg

<svg width="14" height="14" viewBox="0 0 14 14" fill="none" xmlns="http://www.w3.org/2000/svg">
<g id="lock">
<g clip-path="url(#clip0_156_4590)">
<path id="Vector" fill-rule="evenodd" clip-rule="evenodd" d="M6.99999 0C4.90062 0 3.19999 1.70063 3.19999 3.8V5.6H2.99999C1.78496 5.6 0.799988 6.58497 0.799988 7.8V11.8C0.799988 13.015 1.78496 14 2.99999 14H11C12.215 14 13.2 13.015 13.2 11.8V7.8C13.2 6.58497 12.215 5.6 11 5.6H10.8V3.8C10.8 1.70063 9.09936 0 6.99999 0ZM9.59999 5.6V3.8C9.59999 2.36337 8.43662 1.2 6.99999 1.2C5.56336 1.2 4.39999 2.36337 4.39999 3.8V5.6H9.59999ZM3.79999 6.8H2.99999C2.4477 6.8 1.99999 7.24771 1.99999 7.8V11.8C1.99999 12.3523 2.4477 12.8 2.99999 12.8H11C11.5523 12.8 12 12.3523 12 11.8V7.8C12 7.24771 11.5523 6.8 11 6.8H10.2H3.79999Z" fill="black"/>
</g>
</g>
<defs>
<clipPath id="clip0_156_4590">
<rect width="14" height="14" fill="white"/>
</clipPath>
</defs>
</svg>

<svg xmlns="http://www.w3.org/2000/svg" fill="none" viewBox="0 0 14 14"><g clip-path="url(#a)"><path fill="#000" fill-rule="evenodd" d="M7 0a3.8 3.8 0 0 0-3.8 3.8v1.8H3A2.2 2.2 0 0 0 .8 7.8v4A2.2 2.2 0 0 0 3 14h8a2.2 2.2 0 0 0 2.2-2.2v-4A2.2 2.2 0 0 0 11 5.6h-.2V3.8C10.8 1.7 9.1 0 7 0m2.6 5.6V3.8a2.6 2.6 0 1 0-5.2 0v1.8zM3.8 6.8H3a1 1 0 0 0-1 1v4a1 1 0 0 0 1 1h8a1 1 0 0 0 1-1v-4a1 1 0 0 0-1-1H3.8" clip-rule="evenodd"/></g><defs><clipPath id="a"><path fill="#fff" d="M0 0h14v14H0z"/></clipPath></defs></svg>
